X:1
T:Title
%%score { 1 | 2 }
L:1/8
M:3/8
K:D
V:1 treble nm="Grand Piano"
V:2 bass 
V:1
 z z[Q:1/4=78] [DFA] | [DFA][A,DF][F,A,D] | [DFA][A,DF][K:bass][F,A,D] | %3
 [A,CE][K:treble][A,DF][G,CE] | [F,D]2 [DFA] | [DGB][B,DG][DGB] | [DFA][A,DF][K:bass][F,A,D] | %7
 [A,CE][K:treble][A,EG][A,DF] |[M:2/4][K:bass] [A,CE]3 [F,D] | %9
[M:3/8][K:treble] [A,DF][F,A,D][A,DF] | [DFA][F,DF][DFA] | [DGB][B,DG][DGB] |[M:1/4] [DFA]2 | %13
[M:1/8] [DFA] |[M:3/8] [DGB][DBd][DGB] | [DFA][A,DF][K:bass][F,A,D] | %16
[M:7/16] [A,CE][K:treble][A,DF]3/2[G,CE] |[M:2/4] [F,D]4 |[M:3/8] [FA][=F^G][^FA] | [Fd]2 [Fd] | %20
 [Ec][Fd][Ge] | [Fd]2 [DFA] | [DGB][DBd][DGB] | [DFA][A,DF][K:bass][F,A,D] | %24
[M:7/16] [A,CE][K:treble][A,DF]3/2[G,CE] |[M:3/8][K:bass] [F,D]3 |] %26
V:2
 z z D, | D,D,D, | D,D,D, | A,,A,,A,, | D,2 D, | G,G,G, | D,D,D, | A,,A,,A,, |[M:2/4] A,,3 D, | %9
[M:3/8] D,D,D, | D,D,D, | G,G,G, |[M:1/4] D,2 |[M:1/8] D, |[M:3/8] G,G,G, | D,D,D, | %16
[M:7/16] A,,A,,3/2A,, |[M:2/4] D,4 |[M:3/8] [D,D][D,D][D,D] | [D,A,]2 [D,A,] | %20
 [A,,A,][A,,A,][A,,A,] | [D,A,]2 D, | G,G,G, | D,D,D, |[M:7/16] A,,A,,3/2A,, |[M:3/8] D,3 |] %26

